src/components/Footer/images/logo-7.svg

<svg xmlns="http://www.w3.org/2000/svg" width="470" height="262" fill="none"><g fill="#2C2C2C" clip-path="url(#a)"><path fill-rule="evenodd" d="M239.738 150.521c31.898-16.949 54.576-21.995 57.255-15.327h-.011c3.424 8.1-8.6 25.419-43.362 44.487-25.607 14.205-57.433 18.504-60.308 12.399-2.856-5.734 15.463-24.985 46.426-41.559Zm-24.857 31.252c2.413.965 5 1.419 7.597 1.332h.009c10.84-.373 19.25-9.218 19.126-19.812a18.114 18.114 0 0 0-2.013-8.109c-13.134 6.988-23.913 15.088-31.139 22.314a18.777 18.777 0 0 0 6.42 4.275Z" clip-rule="evenodd"/><path d="M173.574 197.313c1.438 1.438 2.677 2.49 6.291 3.798l.863.374h-21.234a2.43 2.43 0 0 1-1.784-.707 2.414 2.414 0 0 1-.709-1.783v-60.811a78.12 78.12 0 0 1 32.571-63.551l-.863 1.058c-2.182 2.68-1.808 5.234-.56 8.661.862 2.367-1.622 4.86-3.054 6.292-5.604 6.294-11.337 14.581-11.895 29.172-.575 13.333 3.425 25.172 4.673 31.463 1.437 6.668 1.618 8.848 1.805 10.093 5.046-4.313 10.466-8.474 15.814-12.212 8.847-5.731 15.814-10.093 22.117-13.334 14.016-7.536 17.631-6.665 6.478-.187-10.938 6.47-21.732 13.823-28.957 20.488-28.784 25.359-24.423 38.132-21.565 41.186M200.921 67.91a77.975 77.975 0 0 1 66.609-.866 77.983 77.983 0 0 1 42.978 50.9s-1.061-1.061-3.988-2.369c-1.995-.863-4.672-1.619-8.473-2.367-4.859-.862-9.719-1.058-15.325-4.112-9.906-5.42-23.238-28.786-44.423-34.89-10.092-2.876-18.002-1.81-21.242-1.249-1.809.377-5.233.748-6.481-.862-2.49-3.241-4.486-5.234-8.287-4.486-.497-.063-1.368.31-1.368.31M312.996 198.932v-61.058c0-1.622-.187-3.428-.187-4.676v-.747l-.186.747c-5.357 14.893-25.357 35.265-55.947 51.092-15.449 8.661-30.593 14.081-43.532 16.761-.187 0-1.437.374-1.437.374h98.796a2.419 2.419 0 0 0 2.323-1.528 2.41 2.41 0 0 0 .17-.965Z"/></g><defs><clipPath id="a"><path fill="#fff" d="M157 60h156v141.488H157z"/></clipPath></defs></svg>

<svg width="470" height="262" viewBox="0 0 470 262" fill="none" xmlns="http://www.w3.org/2000/svg">
<g clip-path="url(#clip0_1_188)">
<path fill-rule="evenodd" clip-rule="evenodd" d="M239.738 150.521C271.636 133.572 294.314 128.526 296.993 135.194H296.982C300.406 143.294 288.382 160.613 253.62 179.681C228.013 193.886 196.187 198.185 193.312 192.08C190.456 186.346 208.775 167.095 239.738 150.521ZM214.881 181.773C217.294 182.738 219.881 183.192 222.478 183.105H222.487C233.327 182.732 241.737 173.887 241.613 163.293C241.583 160.47 240.894 157.694 239.6 155.184C226.466 162.172 215.687 170.272 208.461 177.498C210.282 179.352 212.469 180.808 214.881 181.773Z" fill="white"/>
<path d="M173.574 197.313C175.012 198.751 176.251 199.803 179.865 201.111L180.728 201.485H159.494C159.164 201.495 158.836 201.437 158.529 201.316C158.222 201.194 157.944 201.011 157.71 200.778C157.477 200.545 157.293 200.266 157.171 199.96C157.049 199.653 156.991 199.325 157.001 198.995V138.184C156.988 125.765 159.936 113.521 165.601 102.469C171.265 91.4166 179.483 81.8742 189.572 74.633L188.709 75.6912C186.527 78.3711 186.901 80.9246 188.149 84.3521C189.011 86.7187 186.527 89.2117 185.095 90.6437C179.491 96.9382 173.758 105.225 173.2 119.816C172.625 133.149 176.625 144.988 177.873 151.279C179.31 157.947 179.491 160.127 179.678 161.372C184.724 157.059 190.144 152.898 195.492 149.16C204.339 143.429 211.306 139.067 217.609 135.826C231.625 128.29 235.24 129.161 224.087 135.639C213.149 142.109 202.355 149.462 195.13 156.127C166.346 181.486 170.707 194.259 173.565 197.313" fill="white"/>
<path d="M200.921 67.9109C211.27 62.856 222.611 60.1567 234.128 60.0068C245.645 59.8569 257.052 62.2601 267.53 67.0439C278.008 71.8276 287.296 78.873 294.727 87.6739C302.158 96.4748 307.548 106.813 310.508 117.944C310.508 117.944 309.447 116.883 306.52 115.575C304.525 114.712 301.848 113.956 298.047 113.208C293.188 112.346 288.328 112.15 282.722 109.096C272.816 103.676 259.484 80.31 238.299 74.2053C228.207 71.3298 220.297 72.3966 217.057 72.9574C215.248 73.334 211.824 73.705 210.576 72.0947C208.086 68.854 206.09 66.8613 202.289 67.6089C201.792 67.5457 200.921 67.9195 200.921 67.9195" fill="white"/>
<path d="M312.996 198.932V137.874C312.996 136.252 312.809 134.446 312.809 133.198V132.451L312.623 133.198C307.266 148.091 287.266 168.463 256.676 184.29C241.227 192.951 226.083 198.371 213.144 201.051C212.957 201.051 211.707 201.425 211.707 201.425H310.503C310.833 201.435 311.162 201.377 311.469 201.255C311.775 201.133 312.054 200.95 312.287 200.716C312.521 200.483 312.704 200.204 312.826 199.897C312.948 199.591 313.006 199.262 312.996 198.932Z" fill="white"/>
</g>
<defs>
<clipPath id="clip0_1_188">
<rect width="156" height="141.488" fill="white" transform="translate(157 60)"/>
</clipPath>
</defs>
</svg>
